X:1
T: The Welsh Jig
N:
C:
S:
A:
O:
R:
M:6/8
K:G
I:speed 150
%W: A1
% voice 1 (1 lines, 22 notes)
K:G
M:6/8
L:1/16
F2 G2 A2 A4 B2 A4 A2 A2 F2 D2 G2 A2 G2 B2 c2 B2 G2 A2 G2 B2 c2 B2 |
%W:
% voice 1 (1 lines, 18 notes)
F2 G2 A2 A4 B2 A4 G2 F4 F2 G2 A2 B2 c4 B2 A2 G2 F2 G6 |
%W: A2
% voice 1 (1 lines, 22 notes)
F2 G2 A2 A4 B2 A4 A2 A2 F2 D2 G2 A2 G2 B2 c2 B2 G2 A2 G2 B2 c2 B2 |
%W:
% voice 1 (1 lines, 18 notes)
F2 G2 A2 A4 B2 A4 G2 F4 F2 G2 A2 B2 c4 B2 A2 G2 F2 G6 |
%W: B1
% voice 1 (1 lines, 20 notes)
d2 B2 d2 c2 A2 c2 B2 G2 B2 A2 F2 D2 G4 G2 B2 A2 G2 F4 G2 A6 |
%W:
% voice 1 (1 lines, 22 notes)
d2 B2 d2 c2 A2 c2 B2 G2 B2 A2 F2 D2 B2 A2 G2 e2 d2 c2 B2 c2 A2 G6 |
%W: B2
% voice 1 (1 lines, 20 notes)
d2 B2 d2 c2 A2 c2 B2 G2 B2 A2 F2 D2 G4 G2 B2 A2 G2 F4 G2 A6 |
%W:
% voice 1 (1 lines, 22 notes)
d2 B2 d2 c2 A2 c2 B2 G2 B2 A2 F2 D2 B2 A2 G2 e2 d2 c2 B2 c2 A2 G6 ||
